!!!OTL: Night Herding Song
!!!ARE: United States of America
!!!ONB: Traditional Cowboy Song
!!!AMD: Pentatonic
**kern
*clefG2
*k[f#]
*M6/8
*MM72
{8g/
=1
8b/L
8b/
8b/J
8a/L
8g/}
{8a/J
=2
8b/L
8b/
8b/J
4a/}
{16g/LL
16a/JJ
=3
8b/L
8g/
8g/J
8e/L
8d/
8e/J
=4
8g/L
8g/
8e/J
4d/}
{8b/
=5
4dd\
16dd\LL
16dd\JJ
8d/L
8e/}
{8g/J
=6
8b/L
8b/
8b/J
4a/}
{16g/LL
16a/JJ
=7
8b/L
8b/
8g/J
8e/L
8d/
8e/J
=8
8g/L
8g/
8e/J
4d/}
{8b/
=9
4dd\
16dd\LL
16dd\JJ
8d/L
8e/
8g/J
=10
[4.g/
4g/]}
{8g/
=11
4b/
8b/
(8a/L
8b/)
8a/J
=12
[4.g/
4g/]}
==
*-
